X: 1
T: Wiggen   [G]
T: Tor's Hammer
R: Snoa
Z: Klas Krantz, 2006
S: Rupert Wigg transcripion, modified by:
S: http://www.folksweden.com/files/Wiggen.pdf [Tom Rued] 2021-3-19
O: Fr\"os\"on, J\"amtland
%Q: 108
L: 1/8
M: 2/4
K: G
"^A"[|] D/C/ |\
"G"B,D GB, | D3 E/D/ | "C"CE GC | "(Am)"E3 F/E/ |\
"D7"DF A>B | cB AG | "D7"FD EF |[1 "G"GB/G/ D :|[2 "G"G2 D2 |]
"^B"|:\
"G"B,/D/G/D/ B,/D/G/D/ |\
B,/D/G/D/ B,D/G/D/ | "C"C/E/G/E/ C/E/G/E/ | "(Am)"C/E/G/E/ C/E/G/E/ |\
"D7"D/F/A/F/ D/F/A/F/ |
D/F/A/F/ D-D |[1 "D7"D^C/D/ E=C | "G"B,3 D :|[2 "D7"D^C/D/ EF | "G"G2 A2 \
"^C"|:\
"G"B>B BB | BA GF |
"C"G>E EE | "(Am)"E2 "^Hej!"z2 |\
"D7"D/F/A/F/ D/F/A/F/ | D/F/A/F/ D-D |[1 "D7"D^C/D/ E=C | "G"B,3 D :|[2 "D7"D^C/D/ EF | "G"G3 z |]
